X: 27519
T: Momma Traum
R: jig
M: 6/8
K: Bminor
Bff fed|Bee efg|fdB BAG|F3 FGA|
Bff fed|Bee efg|fdB ABc|1 dBB B2A:|2 dBB BAG||
|:FBB GFE|FBc def|gBg fed|cAA AGE|
FBB GFE|FBc def|ecB ABc|1 dBB BAG:|2 dBB B2c||
|:dAd efg|faa agf|eAA GAA|EAe edc|
dAd efg|faa agf|ecB ABc|1 dBB B2c:|2 dBB B2A||

